X:1
T:Fugace Galatea
T:Fugace Galatea
T:Giovanni Croce Chiozzotto
T:Source : Canzonette a 3 voci---Libro primo---Venetia---G.Vincenti---1601. Editor : André Vierendeels (13/11/14).
C:Giovanni Croce Chiozzotto
%%score [ 1 2 3 ]
L:1/8
Q:1/4=120
M:4/4
K:F
V:1 treble nm="Canto 1" snm="C 1"
V:2 treble nm="Canto 2" snm="C 2"
V:3 treble-8 nm="Tenor" snm="T"
V:1
 d4 _e2 B2 | c2 A2 G2 dd | _e2 B2 B2 c2 | d2 cB A4 | G4 d2 e2 | f2 a4 gf | e2 f2 e4 | d8 :: %8
w: Fu- ga- ce|Ga- la- te- a, fu-|ga- ce Ga- la-|te- * * *|a, nov' al|mon- * * *|do Me- de-|a,|
w: Ti se- guo'e|tu mi fug- gi, ti-|se- guo'e tu mi|fug- * * *|gi, e'l san-|gue pur mi _|fug- * *|gi,|
w: Se'un- tal com-|met- ti'er- ro- re, se'un-|tal com- met- ti'er-|ro- * * *|re, di- ra'el|mon- do'ad A- *|mo- * *|re,|
 z2 B2 BBBB | B2 B2 c2 c2 |[M:3/2] d8 d4 | d4 d4 g4 | f8 ^f4 | g4 g4 ^f4 |1 g8 d4 :|2 %15
w: uc- ci- so che m'ha-|vrai coi strac- ci|suo- i:-|||||
w: uc- ci- so che m'ha-|vrai co'i strac- ci|suo- i:|che fa- ta|po- i,|che fa- ta|po- i?|
w: uc- ci- so'ha Ga- la-|te'a co'i strac- ci|suo- i:|||||
"^final verse" g8 d4- || d12 |] %17
w: ||
w: po- i?-||
w: ||
V:2
 z4 z2 d2 | _e2 d2 B3 A | G6 G2 | ^F2 G4 F2 | G2 B4 c2 | c4 f2 d2 | ^c2 d4 c2 | d8 :: z2 G2 GGGG | %9
w: Fu-|ga- ce Ga- *|* la-|te- * *|a, nov' al|mon- do Me-|de- * *|a,|uc- ci- so che m'ha-|
w: Ti|se- guo'e tu *|* mi|fug- * *|gi, e'l san-|gue pir mi|fug- * *|gi,|uc- ci- so che m'ha-|
w: Se'un-|tal com- met- *|* ti'er-|ro- * *|re, di- ra'el|mon- do'ad A-|mo- * *|re,|uc- ci- so'ha Ga- la-|
 G2 F2 G2 A2 |[M:3/2] B8 B4 | B4 B4 G4 | A8 A4 | d4 c4 A4 |1 G8 G4 :|2"^final verse" G8 G4- || %16
w: vrai coi strac- ci|suo- i:||||||
w: vrai co'i strac- ci|suo- i:|che fa- ta|po- i,|che fa- ta|po- i?|po- i?|
w: te'a co'i strac- ci|suo- i:||||||
 G12 |] %17
w: |
w: |
w: |
V:3
 z8 | z2 d2 _e2 B2 | c2 G2 _e4 | d8 | G2 g4 c2 | f4 f2 g2 | a8 | d8 :: z2 _e2 eeee | %9
w: |Fu- ga- ce|Ga- la- te-||a, nov' al|mon- do Me-|de-|a,|uc- ci- so che m'ha-|
w: |Ti se- guo'e|tu mi fug-||gi, e'l san-|gue pur mi|fug-|gi,|uc- ci- so che m'ha-|
w: |Se'un- tal com-|met- * ti'er-|ro-|re, di- ra'el|mon- do'ad A-|mo-|re,|uc- ci- so'ha Ga- la-|
 _e2 d2 =e2 f2 |[M:3/2] B8 B4 | B4 B4 _e4 | d8 d4 | =B4 c4 d4 |1 G8 G4 :|2"^final verse" G8 G4- || %16
w: vrai coi strac- ci|suo- i:||||||
w: vrai co'i strac- ci|suo- i:|che fa- ta|po- i,|che fa- ta|po- i?|po- i?|
w: te'a co'i strac- ci|suo- i:||||||
 G12 |] %17
w: |
w: |
w: |

